Catalina-dark/places/scalable/folder-steam.svg

<?xml version="1.0" encoding="UTF-8" standalone="no"?>
<!-- Created with Inkscape (http://www.inkscape.org/) -->

<svg
   xmlns:dc="http://purl.org/dc/elements/1.1/"
   xmlns:cc="http://creativecommons.org/ns#"
   xmlns:rdf="http://www.w3.org/1999/02/22-rdf-syntax-ns#"
   xmlns:svg="http://www.w3.org/2000/svg"
   xmlns="http://www.w3.org/2000/svg"
   xmlns:xlink="http://www.w3.org/1999/xlink"
   xmlns:sodipodi="http://sodipodi.sourceforge.net/DTD/sodipodi-0.dtd"
   xmlns:inkscape="http://www.inkscape.org/namespaces/inkscape"
   version="1.1"
   id="svg2"
   width="128"
   height="128"
   viewBox="0 0 128 128"
   sodipodi:docname="folder-steam.svg"
   inkscape:version="0.92.4 5da689c313, 2019-01-14">
  <metadata
     id="metadata8">
    <rdf:RDF>
      <cc:Work
         rdf:about="">
        <dc:format>image/svg+xml</dc:format>
        <dc:type
           rdf:resource="http://purl.org/dc/dcmitype/StillImage" />
        <dc:title></dc:title>
      </cc:Work>
    </rdf:RDF>
  </metadata>
  <defs
     id="defs6">
    <linearGradient
       id="linearGradient895"
       inkscape:collect="always">
      <stop
         id="stop891"
         offset="0"
         style="stop-color:#5291bd;stop-opacity:1" />
      <stop
         style="stop-color:#5291bd;stop-opacity:1"
         offset="0.12336344"
         id="stop898" />
      <stop
         id="stop893"
         offset="1"
         style="stop-color:#5e99b9;stop-opacity:1" />
    </linearGradient>
    <linearGradient
       id="linearGradient1052"
       inkscape:collect="always">
      <stop
         id="stop1040"
         offset="0"
         style="stop-color:#66aed7;stop-opacity:1" />
      <stop
         style="stop-color:#6cb1d7;stop-opacity:1"
         offset="0.33128312"
         id="stop1042" />
      <stop
         style="stop-color:#76b6d7;stop-opacity:1"
         offset="0.5047847"
         id="stop1044" />
      <stop
         id="stop1046"
         offset="0.60396028"
         style="stop-color:#7bb6d5;stop-opacity:1" />
      <stop
         style="stop-color:#77b2d0;stop-opacity:1"
         offset="0.80198014"
         id="stop1048" />
      <stop
         id="stop1050"
         offset="1"
         style="stop-color:#6aa4c2;stop-opacity:1" />
    </linearGradient>
    <linearGradient
       inkscape:collect="always"
       id="linearGradient849">
      <stop
         style="stop-color:#608ea7;stop-opacity:1"
         offset="0"
         id="stop845" />
      <stop
         id="stop853"
         offset="0.16504955"
         style="stop-color:#5887a2;stop-opacity:1" />
      <stop
         style="stop-color:#4e7890;stop-opacity:1;"
         offset="0.29030523"
         id="stop1065" />
      <stop
         style="stop-color:#4a7289;stop-opacity:1"
         offset="0.34926009"
         id="stop855" />
      <stop
         id="stop861"
         offset="0.38956389"
         style="stop-color:#345a6c;stop-opacity:1" />
      <stop
         id="stop857"
         offset="0.44399697"
         style="stop-color:#33586d;stop-opacity:1" />
      <stop
         style="stop-color:#4e88a4;stop-opacity:0;"
         offset="1"
         id="stop847" />
    </linearGradient>
    <linearGradient
       inkscape:collect="always"
       xlink:href="#linearGradient1052"
       id="linearGradient828"
       x1="655.15594"
       y1="211.50072"
       x2="655.15594"
       y2="419.85751"
       gradientUnits="userSpaceOnUse"
       gradientTransform="matrix(0.39478084,0,0,0.39478084,-194.76369,-40.484262)" />
    <linearGradient
       inkscape:collect="always"
       xlink:href="#linearGradient849"
       id="linearGradient859"
       gradientUnits="userSpaceOnUse"
       gradientTransform="matrix(0.39478084,0,0,0.39478084,167.73039,-51.641922)"
       x1="-286.85046"
       y1="201.41634"
       x2="-286.85046"
       y2="326.29895" />
    <filter
       inkscape:label="Film Grain"
       inkscape:menu="Image Effects"
       inkscape:menu-tooltip="Adds a small scale graininess"
       style="color-interpolation-filters:sRGB"
       id="filter898">
      <feTurbulence
         type="fractalNoise"
         numOctaves="3"
         baseFrequency="1"
         seed="0"
         result="result0"
         id="feTurbulence888" />
      <feColorMatrix
         result="result4"
         values="0"
         type="saturate"
         id="feColorMatrix890" />
      <feComposite
         in="SourceGraphic"
         in2="result4"
         operator="arithmetic"
         k1="1.25"
         k2="0.5"
         k3="0.5"
         result="result2"
         id="feComposite892"
         k4="0" />
      <feBlend
         result="result5"
         mode="normal"
         in="result2"
         in2="SourceGraphic"
         id="feBlend894" />
      <feComposite
         in="result5"
         in2="SourceGraphic"
         operator="in"
         result="result3"
         id="feComposite896" />
    </filter>
    <filter
       inkscape:label="Film Grain"
       inkscape:menu="Image Effects"
       inkscape:menu-tooltip="Adds a small scale graininess"
       style="color-interpolation-filters:sRGB;"
       id="filter883">
      <feTurbulence
         type="fractalNoise"
         numOctaves="3"
         baseFrequency="1"
         seed="0"
         result="result0"
         id="feTurbulence873" />
      <feColorMatrix
         result="result4"
         values="0"
         type="saturate"
         id="feColorMatrix875" />
      <feComposite
         in="SourceGraphic"
         in2="result4"
         operator="arithmetic"
         k1="1.25"
         k2="0.5"
         k3="0.5"
         result="result2"
         id="feComposite877" />
      <feBlend
         result="result5"
         mode="normal"
         in="result2"
         in2="SourceGraphic"
         id="feBlend879" />
      <feComposite
         in="result5"
         in2="SourceGraphic"
         operator="in"
         result="result3"
         id="feComposite881" />
    </filter>
    <filter
       inkscape:label="Cross Noise"
       inkscape:menu="Overlays"
       inkscape:menu-tooltip="Adds a small scale screen like graininess"
       style="color-interpolation-filters:sRGB;"
       id="filter904">
      <feTurbulence
         type="fractalNoise"
         numOctaves="5"
         baseFrequency="1"
         seed="0"
         result="result0"
         id="feTurbulence892" />
      <feConvolveMatrix
         kernelMatrix="-2 0 -2 0 -10 0 -2 0 -2 "
         order="3 3"
         result="result5"
         id="feConvolveMatrix894" />
      <feColorMatrix
         result="result4"
         values="0"
         type="saturate"
         in="result5"
         id="feColorMatrix896" />
      <feComposite
         in2="result4"
         in="SourceGraphic"
         operator="arithmetic"
         k1="1.5"
         k2="0.5"
         k3="0.5"
         result="result2"
         id="feComposite898" />
      <feBlend
         result="result6"
         in2="result4"
         mode="normal"
         id="feBlend900" />
      <feComposite
         in2="SourceGraphic"
         in="result6"
         operator="in"
         result="result3"
         id="feComposite902" />
    </filter>
    <linearGradient
       inkscape:collect="always"
       xlink:href="#linearGradient895"
       id="linearGradient1027"
       x1="324.14987"
       y1="82.222374"
       x2="324.14987"
       y2="125.95242"
       gradientUnits="userSpaceOnUse"
       gradientTransform="translate(-244.43187,-21.479565)" />
    <linearGradient
       id="linearGradient3866">
      <stop
         id="stop3868"
         offset="0"
         style="stop-color:#000000;stop-opacity:0.52083331" />
      <stop
         id="stop3870"
         offset="1"
         style="stop-color:#2883c3;stop-opacity:0;" />
    </linearGradient>
    <linearGradient
       id="linearGradient3874">
      <stop
         id="stop3876"
         offset="0"
         style="stop-color:#000d0e;stop-opacity:0.84105963;" />
      <stop
         id="stop3878"
         offset="1"
         style="stop-color:#000000;stop-opacity:0;" />
    </linearGradient>
  </defs>
  <sodipodi:namedview
     pagecolor="#ffffff"
     bordercolor="#666666"
     borderopacity="1"
     objecttolerance="10"
     gridtolerance="10"
     guidetolerance="10"
     inkscape:pageopacity="0"
     inkscape:pageshadow="2"
     inkscape:window-width="1920"
     inkscape:window-height="1031"
     id="namedview4"
     showgrid="false"
     inkscape:zoom="2.151625"
     inkscape:cx="70.797553"
     inkscape:cy="64.324585"
     inkscape:window-x="0"
     inkscape:window-y="26"
     inkscape:window-maximized="1"
     inkscape:current-layer="svg2" />
  <path
     style="opacity:1;fill:url(#linearGradient859);fill-opacity:1;stroke:none;stroke-width:0.78956169;stroke-linecap:round;stroke-linejoin:round;stroke-miterlimit:4;stroke-dasharray:none;stroke-dashoffset:0;stroke-opacity:0.85098039;paint-order:fill markers stroke"
     d="m 7.93424,28.214947 c -3.39101,0 -6.12143,2.72966 -6.12143,6.12064 v 27.21058 c 19.29378,15.45725 121.85448,17.08511 124.92215,4.10729 v -21.8277 c 0,-3.39099 -2.73042,-6.12065 -6.12139,-6.12065 H 48.99014 c -3.59598,0 -5.76696,-4.55304 -8.20378,-7.85362 -1.09185,-1.01636 -2.5579,-1.63654 -4.17426,-1.63654 z"
     id="rect838"
     inkscape:connector-curvature="0"
     sodipodi:nodetypes="ssccssscss" />
  <path
     style="opacity:1;fill:url(#linearGradient828);fill-opacity:1;stroke:none;stroke-width:0.78956169;stroke-linecap:round;stroke-linejoin:round;stroke-miterlimit:4;stroke-dasharray:none;stroke-dashoffset:0;stroke-opacity:0.85098039;paint-order:fill markers stroke"
     d="m 8.38437,43.357317 c -3.61237,0 -6.52083,2.90771 -6.52083,6.52005 v 27.21443 42.088113 3.24383 c 0,1.81543 1.46155,3.27699 3.27699,3.27699 h 3.24384 111.81164 3.24305 c 1.81544,0 3.27699,-1.46156 3.27699,-3.27699 v -3.24383 -42.088113 -27.21443 c 0,-3.61234 -2.90771,-6.52005 -6.52004,-6.52005 z"
     id="rect817"
     inkscape:connector-curvature="0" />
  <path
     inkscape:connector-curvature="0"
     style="opacity:1;fill:#ebf5fa;fill-opacity:0.23626374;stroke:none;stroke-width:0.78956169;stroke-linecap:round;stroke-linejoin:round;stroke-miterlimit:4;stroke-dasharray:none;stroke-dashoffset:0;stroke-opacity:0.85098039;paint-order:fill markers stroke"
     d="m 8.38402,43.357187 c -3.61236,0 -6.52082,2.90772 -6.52082,6.52005 v 0.27527 c 0,-3.61233 2.90846,-6.52005 6.52082,-6.52005 h 111.81165 c 3.61232,0 6.52005,2.90772 6.52005,6.52005 v -0.27527 c 0,-3.61233 -2.90773,-6.52005 -6.52005,-6.52005 z"
     id="path904" />
  <path
     style="fill:none;stroke:#ffffff;stroke-width:0.31582469;stroke-linecap:butt;stroke-linejoin:miter;stroke-miterlimit:4;stroke-dasharray:none;stroke-opacity:0.2527473"
     d="M 2.09504,115.95084 H 126.38613"
     id="path909"
     inkscape:connector-curvature="0" />
  <g
     id="g925"
     transform="matrix(0.39478084,0,0,0.39478084,-44.90948,-40.528782)">
    <path
       inkscape:connector-curvature="0"
       id="path919"
       d="M 118.62489,404.50427 H 433.46057"
       style="fill:none;stroke:#ffffff;stroke-width:0.80000001;stroke-linecap:butt;stroke-linejoin:miter;stroke-miterlimit:4;stroke-dasharray:none;stroke-opacity:0.18681317" />
    <path
       style="fill:none;stroke:#22394c;stroke-width:0.80000001;stroke-linecap:butt;stroke-linejoin:miter;stroke-miterlimit:4;stroke-dasharray:none;stroke-opacity:0.27472528"
       d="M 118.62489,403.68267 H 433.46057"
       id="path921"
       inkscape:connector-curvature="0" />
  </g>
  <g
     id="g931"
     transform="matrix(0.39478084,0,0,0.39478084,-44.90948,-37.088532)">
    <path
       style="fill:none;stroke:#ffffff;stroke-width:0.80000001;stroke-linecap:butt;stroke-linejoin:miter;stroke-miterlimit:4;stroke-dasharray:none;stroke-opacity:0.18681317"
       d="M 118.62489,404.50427 H 433.46057"
       id="path927"
       inkscape:connector-curvature="0" />
    <path
       inkscape:connector-curvature="0"
       id="path929"
       d="M 118.62489,403.68267 H 433.46057"
       style="fill:none;stroke:#22394c;stroke-width:0.80000001;stroke-linecap:butt;stroke-linejoin:miter;stroke-miterlimit:4;stroke-dasharray:none;stroke-opacity:0.29670332" />
  </g>
  <path
     style="opacity:1;fill:url(#linearGradient1027);fill-opacity:1;stroke-width:2.2138629"
     d="m 83.789795,59.57145 c -7.17881,0 -13.00325,5.757496 -13,12.998047 l -9.75,13 c -1.76789,0 -3.51554,0.493072 -5.0332,1.416015 l -24.21485,-9.941406 v 10.548828 l 19.51172,7.998047 c 0.14624,5.271179 4.46191,9.470059 9.73633,9.476559 5.38492,0 9.76949,-4.55681 9.75,-9.749996 l 13,-9.748047 c 7.2373,0 12.99805,-5.821196 12.99805,-13 0,-7.178805 -5.81925,-12.998046 -12.99805,-12.998047 z m 0,3.248047 c 5.38491,0 9.74805,4.365084 9.74805,9.75 0,5.384916 -4.36314,9.75 -9.74805,9.75 -5.38167,0 -9.64925,-5.314025 -9.75,-9.75 0,-5.384916 4.36508,-9.75 9.75,-9.75 z m 0,3.25 c -3.59103,0 -6.5,2.908973 -6.5,6.5 0,3.591027 2.90897,6.5 6.5,6.5 3.59103,0 6.49805,-2.908973 6.49805,-6.5 0,-3.591027 -2.90702,-6.5 -6.49805,-6.5 z m -22.75,22.75 c 3.59103,0 6.5,2.90702 6.5,6.498047 0,3.591036 -2.90897,6.499996 -6.5,6.499996 -2.93782,0 -5.51039,-1.96957 -6.27734,-4.80664 l 2.90039,1.18946 c 2.4991,1.02369 5.33763,-0.16106 6.36132,-2.66016 1.02368,-2.499094 -0.1591,-5.337642 -2.6582,-6.361328 l -0.82617,-0.333984 c 0.16574,-0.01625 0.33426,-0.02214 0.5,-0.02539 z"
     id="path980-7"
     inkscape:connector-curvature="0"
     sodipodi:nodetypes="scccccccccssssscsssssscsscccccc" />
  <path
     style="opacity:1;fill:#3c769e;fill-opacity:0.18681319;stroke-width:2.2138629"
     d="M 83.789062 59.572266 C 76.610253 59.572266 70.785812 65.329762 70.789062 72.570312 L 61.039062 85.570312 C 59.271172 85.570312 57.523519 86.063385 56.005859 86.986328 L 31.791016 77.044922 L 31.791016 78.322266 L 56.005859 88.263672 C 57.523519 87.340729 59.271172 86.847656 61.039062 86.847656 L 70.789062 73.847656 C 70.785812 66.607105 76.610253 60.849609 83.789062 60.849609 C 90.752114 60.84961 96.4205 66.329098 96.755859 73.208984 C 96.766149 72.995809 96.787109 72.786061 96.787109 72.570312 C 96.787109 65.391508 90.967862 59.572267 83.789062 59.572266 z M 83.789062 66.070312 C 80.198032 66.070312 77.289062 68.979286 77.289062 72.570312 C 77.289062 72.786159 77.30173 72.99855 77.322266 73.208984 C 77.643385 69.918431 80.41388 67.347656 83.789062 67.347656 C 87.164246 67.347656 89.934948 69.91843 90.255859 73.208984 C 90.276382 72.99855 90.287109 72.786159 90.287109 72.570312 C 90.287109 68.979286 87.380093 66.070312 83.789062 66.070312 z M 74.080078 73.0625 C 74.059287 73.322452 74.039062 73.582353 74.039062 73.847656 C 74.139813 78.283631 78.407393 83.597656 83.789062 83.597656 C 89.173973 83.597656 93.537109 79.232572 93.537109 73.847656 C 93.537109 73.631865 93.519658 73.421285 93.505859 73.208984 C 93.175332 78.294491 88.958181 82.320312 83.789062 82.320312 C 78.604543 82.320312 74.467299 77.389939 74.080078 73.0625 z M 61.039062 90.097656 C 60.873323 90.100907 60.704802 90.106797 60.539062 90.123047 L 61.365234 90.457031 C 63.046282 91.145625 64.111153 92.658728 64.330078 94.333984 C 64.522796 92.910511 64.078003 91.497505 63.140625 90.449219 C 62.480883 90.223964 61.775345 90.097656 61.039062 90.097656 z M 67.507812 95.957031 C 67.186694 99.247592 64.414246 101.81836 61.039062 101.81836 C 58.679379 101.81836 56.573666 100.53469 55.431641 98.564453 L 54.761719 98.289062 C 55.528669 101.12613 58.101242 103.0957 61.039062 103.0957 C 64.630093 103.0957 67.539062 100.18674 67.539062 96.595703 C 67.539062 96.379857 67.528348 96.167452 67.507812 95.957031 z "
     id="path1414" />
</svg>

<svg width="128" height="128" version="1.1" viewBox="0 0 128 128" xmlns="http://www.w3.org/2000/svg">
<defs>
<linearGradient id="linearGradient828" x1="655.16" x2="655.16" y1="211.5" y2="419.86" gradientTransform="matrix(.39478 0 0 .39478 -194.76 -40.484)" gradientUnits="userSpaceOnUse"/>
<linearGradient id="linearGradient859" x1="-286.85" x2="-286.85" y1="201.42" y2="326.3" gradientTransform="matrix(.39478 0 0 .39478 167.73 -51.642)" gradientUnits="userSpaceOnUse"/>
<linearGradient id="linearGradient1027" x1="324.15" x2="324.15" y1="82.222" y2="125.95" gradientTransform="translate(-244.43 -21.48)" gradientUnits="userSpaceOnUse"/>
</defs>
<path d="m7.9342 28.215c-3.391 0-6.1214 2.7297-6.1214 6.1206v27.211c19.294 15.457 121.85 17.085 124.92 4.1073v-21.828c0-3.391-2.7304-6.1206-6.1214-6.1206h-71.623c-3.596 0-5.767-4.553-8.2038-7.8536-1.0918-1.0164-2.5579-1.6365-4.1743-1.6365z" fill="url(#linearGradient859)" style="paint-order:fill markers stroke"/>
<path d="m8.3844 43.357c-3.6124 0-6.5208 2.9077-6.5208 6.52v72.546c0 1.8154 1.4616 3.277 3.277 3.277h118.3c1.8154 0 3.277-1.4616 3.277-3.277v-72.546c0-3.6123-2.9077-6.52-6.52-6.52z" fill="url(#linearGradient828)" style="paint-order:fill markers stroke"/>
<path d="m8.384 43.357c-3.6124 0-6.5208 2.9077-6.5208 6.52v0.27527c0-3.6123 2.9085-6.52 6.5208-6.52h111.81c3.6123 0 6.52 2.9077 6.52 6.52v-0.27527c0-3.6123-2.9077-6.52-6.52-6.52z" fill="#ebf5fa" fill-opacity=".23626" style="paint-order:fill markers stroke"/>
<path d="m2.095 115.95h124.29" fill="none" stroke="#fff" stroke-opacity=".25275" stroke-width=".31582"/>
<g transform="matrix(.39478 0 0 .39478 -44.909 -40.529)" fill="none" stroke-width=".8">
<path d="m118.62 404.5h314.84" stroke="#fff" stroke-opacity=".18681"/>
<path d="m118.62 403.68h314.84" stroke="#22394c" stroke-opacity=".27473"/>
</g>
<g transform="matrix(.39478 0 0 .39478 -44.909 -37.089)" fill="none" stroke-width=".8">
<path d="m118.62 404.5h314.84" stroke="#fff" stroke-opacity=".18681"/>
<path d="m118.62 403.68h314.84" stroke="#22394c" stroke-opacity=".2967"/>
</g>
<path d="m83.79 59.571c-7.1788 0-13.003 5.7575-13 12.998l-9.75 13c-1.7679 0-3.5155 0.49307-5.0332 1.416l-24.215-9.9414v10.549l19.512 7.998c0.14624 5.2712 4.4619 9.4701 9.7363 9.4766 5.3849 0 9.7695-4.5568 9.75-9.75l13-9.748c7.2373 0 12.998-5.8212 12.998-13 0-7.1788-5.8192-12.998-12.998-12.998zm0 3.248c5.3849 0 9.748 4.3651 9.748 9.75s-4.3631 9.75-9.748 9.75c-5.3817 0-9.6492-5.314-9.75-9.75 0-5.3849 4.3651-9.75 9.75-9.75zm0 3.25c-3.591 0-6.5 2.909-6.5 6.5s2.909 6.5 6.5 6.5 6.498-2.909 6.498-6.5-2.907-6.5-6.498-6.5zm-22.75 22.75c3.591 0 6.5 2.907 6.5 6.498 0 3.591-2.909 6.5-6.5 6.5-2.9378 0-5.5104-1.9696-6.2773-4.8066l2.9004 1.1895c2.4991 1.0237 5.3376-0.16106 6.3613-2.6602 1.0237-2.4991-0.1591-5.3376-2.6582-6.3613l-0.82617-0.33398c0.16574-0.01625 0.33426-0.02214 0.5-0.02539z" fill="url(#linearGradient1027)" stroke-width="2.2139"/>
<path d="m83.789 59.572c-7.1788 0-13.003 5.7575-13 12.998l-9.75 13c-1.7679 0-3.5155 0.49307-5.0332 1.416l-24.215-9.9414v1.2773l24.215 9.9414c1.5177-0.92294 3.2653-1.416 5.0332-1.416l9.75-13c-0.00325-7.2406 5.8212-12.998 13-12.998 6.9631 1e-6 12.631 5.4795 12.967 12.359 0.01029-0.21318 0.03125-0.42292 0.03125-0.63867 0-7.1788-5.8192-12.998-12.998-12.998zm0 6.498c-3.591 0-6.5 2.909-6.5 6.5 0 0.21585 0.012668 0.42824 0.033204 0.63867 0.32112-3.2906 3.0916-5.8613 6.4668-5.8613 3.3752 0 6.1459 2.5708 6.4668 5.8613 0.020523-0.21043 0.03125-0.42282 0.03125-0.63867 0-3.591-2.907-6.5-6.498-6.5zm-9.709 6.9922c-0.020791 0.25995-0.041016 0.51985-0.041016 0.78516 0.10075 4.436 4.3683 9.75 9.75 9.75 5.3849 0 9.748-4.3651 9.748-9.75 0-0.21579-0.017451-0.42637-0.03125-0.63867-0.33053 5.0855-4.5477 9.1113-9.7168 9.1113-5.1845 0-9.3218-4.9304-9.709-9.2578zm-13.041 17.035c-0.16574 0.003251-0.33426 0.009141-0.5 0.025391l0.82617 0.33398c1.681 0.68859 2.7459 2.2017 2.9648 3.877 0.19272-1.4235-0.25208-2.8365-1.1895-3.8848-0.65974-0.22526-1.3653-0.35156-2.1016-0.35156zm6.4688 5.8594c-0.32112 3.2906-3.0936 5.8613-6.4688 5.8613-2.3597 0-4.4654-1.2837-5.6074-3.2539l-0.66992-0.27539c0.76695 2.8371 3.3395 4.8066 6.2773 4.8066 3.591 0 6.5-2.909 6.5-6.5 0-0.21585-0.010714-0.42825-0.03125-0.63867z" fill="#3c769e" fill-opacity=".18681" stroke-width="2.2139"/>
</svg>
